Sources/FrostedUI/Resources/Icons.xcassets/shop24.imageset/shop-24.svg

<svg width="25" height="24" viewBox="0 0 25 24" fill="none" xmlns="http://www.w3.org/2000/svg" data-fui-icon="true">
  <path
    d="M18.6162 1.09082L18.9824 1.10449C20.7966 1.23692 22.4101 2.34598 23.1748 4.01758L23.7393 5.25098C24.0034 5.82837 24.1396 6.45687 24.1396 7.0918L24.1338 7.31934C24.0545 8.88307 23.1622 10.2314 21.8721 10.9531V18.7354C21.8719 21.0699 19.9791 22.9628 17.6445 22.9629H6.49512C4.16044 22.9629 2.26774 21.07 2.26758 18.7354V10.9531C0.977318 10.2314 0.085156 8.88315 0.00585938 7.31934L0 7.0918C0 6.45683 0.136254 5.82839 0.400391 5.25098L0.964844 4.01758C1.7296 2.3459 3.34293 1.23684 5.15723 1.10449L5.52344 1.09082H18.6162ZM8.34961 9.4248C7.57368 10.6361 6.24394 11.4413 4.74121 11.5098L4.53223 11.5146H4.42285L4.19531 11.5088C4.05077 11.5015 3.90813 11.4867 3.76758 11.4658V18.7354C3.76774 20.2416 4.98887 21.4629 6.49512 21.4629H8.02832V16.3047C8.02855 15.5176 8.667 14.8789 9.4541 14.8789H14.6865C15.4734 14.8792 16.1111 15.5178 16.1113 16.3047V21.4629H17.6445C19.1507 21.4628 20.3719 20.2415 20.3721 18.7354V11.4658C20.2315 11.4867 20.0889 11.5015 19.9443 11.5088L19.7168 11.5146H19.6074L19.3984 11.5098C17.897 11.4413 16.5682 10.6374 15.792 9.42773C15.0305 10.6699 13.6617 11.5146 12.0713 11.5146L11.8252 11.5078C10.3391 11.4256 9.07105 10.6038 8.34961 9.4248ZM9.52832 21.4629H14.6113V16.3789H9.52832V21.4629ZM9.23926 6.75098C8.99476 8.47369 10.3314 10.0144 12.0713 10.0146C13.8114 10.0146 15.1488 8.47386 14.9043 6.75098L14.3135 2.59082H9.83008L9.23926 6.75098ZM5.52344 2.59082C4.14932 2.59082 2.90078 3.39206 2.3291 4.6416L1.76465 5.87598C1.59018 6.25749 1.5 6.67228 1.5 7.0918C1.50007 8.70601 2.80864 10.0146 4.42285 10.0146H4.53223C6.0316 10.0146 7.30663 8.91895 7.53125 7.43652L8.26465 2.59082H5.52344ZM16.6084 7.43652C16.833 8.91893 18.1081 10.0146 19.6074 10.0146H19.7168C21.3309 10.0144 22.6396 8.70592 22.6396 7.0918C22.6396 6.67232 22.5494 6.25746 22.375 5.87598L21.8105 4.6416C21.2389 3.39214 19.9902 2.59092 18.6162 2.59082H15.875L16.6084 7.43652Z"
    fill="currentColor"
  />
</svg>

<svg xmlns="http://www.w3.org/2000/svg" width="25" height="24" fill="none" data-fui-icon="true" viewBox="0 0 25 24"><path fill="currentColor" d="m18.616 1.09.366.014a5.01 5.01 0 0 1 4.193 2.914l.564 1.233c.264.577.4 1.206.4 1.84l-.005.228a4.42 4.42 0 0 1-2.262 3.634v7.782a4.23 4.23 0 0 1-4.227 4.228H6.495a4.23 4.23 0 0 1-4.227-4.228v-7.782A4.42 4.42 0 0 1 .006 7.32L0 7.092c0-.635.136-1.264.4-1.841l.565-1.233a5.01 5.01 0 0 1 4.192-2.914l.366-.013zM8.35 9.426A4.53 4.53 0 0 1 4.74 11.51l-.209.005h-.11l-.227-.006a4 4 0 0 1-.427-.043v7.27a2.73 2.73 0 0 0 2.727 2.727h1.533v-5.158c0-.787.639-1.426 1.426-1.426h5.233c.786 0 1.424.639 1.424 1.426v5.158h1.534a2.73 2.73 0 0 0 2.727-2.728v-7.27q-.21.033-.428.044l-.227.006h-.11l-.209-.005a4.53 4.53 0 0 1-3.606-2.082 4.35 4.35 0 0 1-3.72 2.087l-.247-.007A4.35 4.35 0 0 1 8.35 9.425m1.178 12.038h5.083v-5.084H9.528zM9.24 6.75a2.861 2.861 0 1 0 5.665 0l-.59-4.16H9.83zm-3.716-4.16A3.51 3.51 0 0 0 2.33 4.64l-.564 1.235a2.924 2.924 0 0 0 2.658 4.139h.11c1.499 0 2.774-1.096 2.998-2.578l.734-4.846zm11.085 4.846a3.03 3.03 0 0 0 3 2.578h.109a2.923 2.923 0 0 0 2.658-4.139l-.564-1.234a3.51 3.51 0 0 0-3.195-2.051h-2.741z"/></svg>
